X: 2
T:Glen Cottage Polka No. 1, The
T:Sir Patrick Was a Gentleman
M:2/4
L:1/8
R:Polka
K:EMin
A[|:GE ED|B,E EF|GF/2G/2 ED|GA B/2c/2B/2A/2|!
GE ED|B,E EG|Bc/2B/2 AG|1 E2 B>A:|2 E2 EA|!
|:Be ef|eB BA|Be f/2e/2d|e2 ef|!
ga/2g/2 fg/2f/2|eB BA|BE E/2F/2G/2A/2|B>A B>A:|]!
